wp_data/wp-content/themes/eurostone/assets/images/icon_email.svg

<svg width="34" height="34" viewBox="0 0 34 34" fill="none" xmlns="http://www.w3.org/2000/svg">
<circle cx="17" cy="17" r="17" fill="#0779F1"/>
<g clip-path="url(#clip0_409_4066)">
<path d="M26.7141 22.2982C26.6029 22.5614 26.5311 22.8512 26.3724 23.0816C26.0592 23.5424 25.5778 23.7438 25.0156 23.7692C24.9776 23.7692 24.9396 23.7692 24.9021 23.7692C19.6356 23.7692 14.3695 23.7692 9.10373 23.7692C8.50542 23.7692 8.00596 23.571 7.63481 23.1037C7.40338 22.8089 7.28116 22.4471 7.2879 22.0766C7.28632 18.7909 7.28679 15.5051 7.28933 12.2192C7.29123 11.2252 8.04161 10.5261 9.0833 10.5238C11.2646 10.5238 13.4457 10.5238 15.6267 10.5238H24.9006C25.6425 10.5238 26.2061 10.822 26.5406 11.4754C26.6233 11.6367 26.6575 11.8215 26.7141 11.9957V22.2982ZM9.2501 11.6325C9.30713 11.6924 9.33849 11.7279 9.37271 11.7606C11.4928 13.8064 13.6133 15.8518 15.7341 17.8969C16.4944 18.6301 17.5128 18.6241 18.2784 17.8868C20.3909 15.8506 22.5023 13.8136 24.6127 11.7759C24.6535 11.7362 24.6901 11.6924 24.7452 11.6325H9.2501ZM9.35845 22.6508H24.6359L19.8471 17.9131C19.5672 18.1896 19.3125 18.4527 19.0459 18.7034C18.2409 19.461 17.2923 19.7107 16.2055 19.431C15.7051 19.3024 15.2869 19.0319 14.9257 18.6766C14.6738 18.4287 14.4229 18.1799 14.1516 17.9112L9.35845 22.6508ZM13.2201 17.1785L8.43984 12.4689V21.9015L13.2201 17.1785ZM25.5688 12.4593L25.527 12.4334L20.6973 17.1891C22.2982 18.7319 23.922 20.2966 25.5688 21.883V12.4593Z" fill="white"/>
</g>
<defs>
<clipPath id="clip0_409_4066">
<rect width="19.4286" height="13.2468" fill="white" transform="translate(7.28577 10.5238)"/>
</clipPath>
</defs>
</svg>

<svg width="34" height="34" fill="none" xmlns="http://www.w3.org/2000/svg"><circle cx="17" cy="17" r="17" fill="#0779F1"/><g clip-path="url(#clip0_409_4066)"><path d="M26.714 22.298c-.111.263-.183.553-.342.784-.313.46-.794.662-1.356.687H9.104c-.599 0-1.098-.198-1.47-.665a1.615 1.615 0 01-.346-1.027c-.002-3.286-.001-6.572.001-9.858.002-.994.753-1.693 1.794-1.695h15.818c.741 0 1.305.298 1.64.951.082.162.116.347.173.52v10.303zM9.25 11.633c.057.06.088.095.123.128l6.361 6.136c.76.733 1.779.727 2.544-.01 2.113-2.036 4.224-4.073 6.335-6.111.04-.04.077-.084.132-.143H9.25zm.108 11.018h15.278l-4.789-4.738c-.28.277-.535.54-.801.79-.805.758-1.754 1.008-2.84.728-.5-.129-.92-.4-1.28-.754l-.774-.766-4.794 4.74zm3.862-5.473l-4.78-4.71v9.433l4.78-4.723zm12.35-4.718l-.042-.026-4.83 4.756 4.872 4.694V12.46z" fill="#fff"/></g><defs><clipPath id="clip0_409_4066"><path fill="#fff" transform="translate(7.286 10.524)" d="M0 0h19.429v13.247H0z"/></clipPath></defs></svg>
